!!!!SEGMENT: 024-1-Sm-001.krn
!!!COM: Chopin, Fryderyk
!!!OTL: No 1. Mazurka
!!!OPS: Op. 24
!!!PTL: Quatre Mazurkas
!!!PPR: M. Schlesinger
!!!PPP: Paris
!!!NIFC-rismID: 1001066059
!!!NIFC-shelfmark: PL-Wbfc 6594/n
!!!OMD: Lento [quarter] = 108
**kern	**kern	**dynam
*part1	*part1	*part1
*staff2	*staff1	*
*clefF4	*clefG2	*
*>[I,A,A1,A,A2,B]	*>[I,A,A1,A,A2,B]	*
*k[b-e-]	*k[b-e-]	*
*g:	*g:	*
*M3/4	*M3/4	*
*MM108	*MM108	*
*>I	*>I	*
4r	[<4a^<	.
=1!|:	=1!|:	=1!|:
*>A	*>A	*
!	!LO:TX:b:t=rubato	!
*ped	*	*
4DD	8aL]	.
.	16r	.
.	(>16f#Jk	.
4c 4A 4D	4d'<	.
*Xped	*	*
4d 4c 4A 4D	4f#'<	.
=2	=2	=2
*ped	*	*
.	.	.
4GG	2g^>	<
4d 4B- 4G	.	.
*Xped	*	*
4d 4B- 4G	8aL	.
.	8b-J	.
*clefG2	*	*
=3	=3	=3
4r	8ccL	.
.	16r	.
.	16ddJk	.
(<4g 4e- 4c 4G	4ee-)	[
4a 4e- 4c 4G)	(>4ff#^<	.
*clefF4	*	*
=4	=4	=4
*	*^	*
4r	(<8gg	(<2.b-	.
.	4.dd))	.	.
(>4d'> 4G'>	.	.	.
4d'> 4G'>)	4rgg	.	.
*ped	*	*	*
.	.	.	.
*	*v	*v	*
=5	=5	=5
4DD'<	8aL)	.
.	16r	.
.	(16f#Jk	.
4c 4A 4D	4d	.
*Xped	*	*
4d 4c 4A 4D	4f#	.
!!LO:LB:g=original
=6	=6	=6
*ped	*	*
4GG	2g^>)	.
4d 4B- 4G	.	.
*Xped	*	*
4d 4B- 4G	(>8.ddL	.
.	16cc#Jk	.
=7	=7	=7
4r	8b-L	.
.	16r	.
.	16aJk	.
(4en 4B- 4G 4D	4g'<	.
4c# 4A 4D)	4f#'<	.
=8	=8	=8
.	8qf#/	.
4r	2d^<)	.
(4A 4D	.	.
4A^< 4D^<)	(<[<4a^<	.
=9	=9	=9
*	*^	*
*ped	*	*	*
4DD'<	8aL]	2ryy	.
.	8f#J	.	.
4c 4A 4D	4d)	.	.
*Xped	*	*	*
4d 4c 4A 4D	(>8.b-L	4f#X	.
.	16aJk	.	.
*	*v	*v	*
=10	=10	=10
*ped	*	*
4GG'<	2g^<	.
4d 4B- 4G	.	.
*Xped	*	*
4d 4B- 4G	8aL	.
.	8b-J	.
*clefG2	*	*
=11	=11	=11
4r	8ccL	.
.	16r	.
.	16ddJk	.
4g 4e- 4c 4G	4ee-)	.
4an 4e- 4c 4G	(>4ff#^<	.
*clefF4	*	*
=12	=12	=12
*	*^	*
4r	8gg	(<2.b-	.
.	4.dd)	.	.
(4d'> 4G'>	.	.	.
4d'> 4G'>)	4rff	.	.
*	*v	*v	*
!!LO:LB:g=original
=13	=13	=13
*ped	*	*
4DD	8aL)	.
.	16r	.
.	(<16f#Jk	.
4c 4A 4D	4d	.
*Xped	*	*
4d 4c 4A 4D	4f#	.
=14	=14	=14
*ped	*	*
4GG	2g^>)	.
4d 4B- 4G	.	.
*Xped	*	*
4d 4B- 4G	(8.ddL	.
.	16cc#Jk	.
=15	=15	=15
4r	8b-L)	.
.	(<8aJ	.
(4en 4B- 4G 4D	4g'<	.
4c# 4A 4D)	4f#'<	.
=16	=16	=16
.	8qf#/	.
4r	(<2.d^<)	.
(4A'> 4D'>	.	.
4A'> 4D'>)	.	.
=17	=17	=17
!	!LO:TX:a:t=dol	!
*ped	*	*
4FF	4fn'<)	fz
!	!LO:TX:t=P:problem:cyfrowe oznaczenie trioli na dole	!
(4e- 4B- 4F	(12g^>L	.
.	12a	.
.	12gJ	.
*Xped	*	*
4e- 4A 4F	4f'<)	.
=18	=18	=18
!	!LO:TX:t=P:problem:cyfrowe oznaczenie trioli na dole	!
4e- 4B- 4F	(12gL	.
.	12a	.
.	12gJ	.
4e- 4A 4F)	4f'<)	.
4r	(>4gg^<	.
=19	=19	=19
*ped	*	*
*	*Xtuplet	*
4FF	12ffL	.
.	12gg	.
.	12ffJ	.
*clefG2	*	*
4a 4e- 4c	4.een^<	.
*Xped	*	*
4a 4e- 4c	.	.
.	8ee-)	.
*clefF4	*	*
!!LO:LB:g=original
=20	=20	=20
*ped	*	*
*	*tuplet	*
!	!LO:TX:t=P:problem:cyfrowe oznaczenie trioli na górze	!
4BB-'<	(>(>12ee-L	.
.	12ff	.
.	12ee-J)	.
*clefG2	*	*
4b-: 4d: 4B-: 4F:	2dd^<	.
*Xped	*	*
4r	.	.
*clefF4	*	*
=21	=21	=21
*ped	*	*
4FF'<	4f'<)	.
!	!LO:TX:t=P:problem:cyfrowe oznaczenie trioli na dole	!
!	!	!LO:HP:a
(>4e- 4B- 4F	(12gL	>
.	12a	.
.	12gJ)	]
4e- 4A 4F	4f'<	.
=22	=22	=22
!	!LO:TX:t=P:problem:cyfrowe oznaczenie trioli na dole	!
!	!	!LO:HP:a
4e- 4B- 4F	(12gL	>
.	12a	.
.	12gJ)	]
4e- 4A 4F)	4f'<	.
!	!	!LO:HP:b=2
(>4g 4A 4F	(>4ee-^<	>
=23	=23	=23
!	!LO:TX:t=P:problem:cyfrowe oznaczenie trioli na górze	!
4f 4A 4F	(>12ddL	.
.	12ee-	.
.	12ddJ)	.
4en 4A 4F	4.cc#	.
4e- 4A 4F)	.	]
.	8ccn)	.
=24	=24	=24
*ped	*	*
!	!LO:TX:t=P:problem:cyfrowe oznaczenie trioli na górze	!
4BB-'<	(12ccL	.
.	12dd	.
.	12ccJ)	.
4d 4B- 4F	(>4b-	.
*Xped	*	*
4d 4B- 4F	8a^<L	.
.	8gJ	.
=25	=25	=25
*ped	*	*
(>4FF	4f'<)	fz
!	!LO:TX:t=P:problem:cyfrowe oznaczenie trioli na dole	!
4e- 4B- 4F	(12g^>L	.
.	12a	.
.	12gJ	.
*Xped	*	*
4e- 4A 4F	4f'<)	.
=26	=26	=26
!	!LO:TX:t=P:problem:cyfrowe oznaczenie trioli na dole	!
4e- 4B- 4F	(12g^>L	.
.	12a	.
.	12gJ	.
4e- 4A 4F	4f'<)	.
4e- 4A 4F)	4gg^<	.
!!LO:LB:g=original
=27	=27	=27
!	!LO:TX:t=P:problem:cyfrowe oznaczenie trioli na górze	!
*ped	*	*
4FF	(>12ffL	.
.	12gg	.
.	12ffJ	.
*clefG2	*	*
4a 4e- 4c	4.een^<	.
*Xped	*	*
4a 4e- 4c	.	.
.	8ee-)	.
*clefF4	*	*
=28	=28	=28
!	!LO:TX:t=P:problem:cyfrowe oznaczenie trioli na górze	!
4BB-'<	(>12ee-L	.
.	12ff	.
*ped	*	*
.	12ee-J	.
*clefG2	*	*
4b-: 4f: 4d: 4B-: 4F:	2dd^<	.
*Xped	*	*
4r	.	.
*clefF4	*	*
=29	=29	=29
*ped	*	*
(>4FF'<	4f'<)	fz
!	!LO:TX:t=P:problem:cyfrowe oznaczenie trioli na dole	!
4e- 4B- 4F	(12gL	.
.	12a	.
.	12gJ	.
*Xped	*	*
4e- 4A 4F	4f'<)	.
=30	=30	=30
!	!LO:TX:t=P:problem:cyfrowe oznaczenie trioli na dole	!
4e- 4B- 4F	(12g^>L	.
.	12a	.
.	12gJ	.
4e- 4A 4F	4f'<)	.
!	!	!LO:HP:b=2
4g 4A 4F	(>4ee-^<	>
=31	=31	=31
!	!LO:TX:t=P:problem:cyfrowe oznaczenie trioli na górze	!
4f 4A 4F	(>12ddL	.
.	12ee-	.
.	12ddJ)	.
4en 4A 4F	4.cc#^<	.
4e- 4A 4F)	.	]
.	8ccn)	.
=32	=32	=32
*>A1	*>A1	*
*ped	*	*
!	!LO:TX:t=P:problem:cyfrowe oznaczenie trioli na górze	!
(>4BB-	(12ccL	.
.	12dd	.
.	12ccJ)	.
!!LO:TX:a:B:t=1a.
4d 4F#	(>4.bn^<	.
*Xped	*	*
4d 4G)	.	.
.	8b-)	.
!!LO:PB:g=original
=33:|!	=33:|!	=33:|!
*>A2	*>A2	*
*	*Xtuplet	*
*ped	*	*
!!LO:TX:a:B:t=2a.
4BB-'<	(>12ccL	.
.	12ddn	.
.	12ccJ	.
4d 4F	4.b-)	.
*Xped	*	*
4d 4F	.	.
.	(>8bn	.
=34|	=34|	=34|
*>B	*>B	*
*	*tuplet	*
!	!LO:TX:a:t=con anima	!
*ped	*	*
4BBB-	8ccL 8a-	>
.	16r	.
.	(16b-Jk 16g)	]
4d 4B- 4F	4.a- 4.f)	.
*Xped	*	*
4d 4B- 4F	.	.
.	(8cc/ 8a-/	.
=35	=35	=35
*ped	*	*
4EE-'<	8cc^>L 8a-^>)	.
.	16r	.
.	(<16b-Jk 16g	.
4B- 4G	4.g^> 4.e-^>)	.
*Xped	*	*
4e- 4B- 4G	.	.
.	(8cc/ 8a-/	.
=36	=36	=36
*ped	*	*
4BB-'<	8cc^>L 8a-^>)	.
.	16r	.
.	(16b-Jk 16g	.
4d 4B- 4F	4.a- 4.f)	.
*Xped	*	*
4d 4B- 4F	.	.
.	8cc/ 8a-/	.
=37	=37	=37
*ped	*	*
4EE-'<	(8ccL 8a-	>
.	16r	.
.	16b-Jk 16g	]
4e- 4B- 4E-	4ee-'> 4g'>)	.
*Xped	*	*
4e- 4Bn 4E-	(>4gg^< 4g^<	.
=38	=38	=38
*	*^	*
4e- 4c 4E-	8.ffL	4a-	<
.	16ee-Jk	.	.
4e- 4c 4E-	4cc	4a-	.
4e- 4B- 4E-	4ee-	4g	[
=39	=39	=39	=39
8e- 8c 8E-	8ff'>L)	8a-	.
8r	16rff	8re	.
.	(>16ee-Jk	.	.
4e- 4c 4E-	4cc	4a-	<
4e- 4B- 4E-	4ee-	4g	[
!!LO:LB:g=original
=40	=40	=40	=40
4d 4B- 4E-	8.ccL	8.a-L	>
.	16b-Jk	16gJ	]
4d 4B- 4E-	4.a- 4.f	2ryy	.
4d 4B- 4E-	.	.	.
.	8cc/ 8a-/	.	.
*	*v	*v	*
=41	=41	=41
*ped	*	*
4EE-'<	8.ccL 8.a-	.
.	16b-Jk 16g	.
4B- 4G	2g 2e-)	.
*Xped	*	*
4B- 4G	.	.
=42	=42	=42
.	(<8qd/	.
*ped	*	*
4BB-'<	8cc^>L 8a-^>)	.
.	16r	.
.	(<16b-Jk 16g	.
4d 4B- 4F	4.a- 4.f)	.
*Xped	*	*
4d 4B- 4F	.	.
.	8cc/ 8a-/	.
=43	=43	=43
*ped	*	*
4EE-'<	8ccL 8a-	.
.	16r	.
!	!LO:TX:a:t=P:problem:mało widoczna kropka przy 4.e	!
.	(<16b-Jk 16g	.
4B- 4G	4.g^> 4.e-^>)	.
*Xped	*	*
4e- 4B- 4G	.	.
.	(<8b- 8g	.
=44	=44	=44
.	16qqb- 16qqg/LL	.
.	16qqdd/JJ	.
*ped	*	*
4BB-'<	8cc^>L 8a-)	.
.	16r	.
.	(16b-Jk 16g	.
4d 4B- 4F	4.a- 4.f)	.
*Xped	*	*
4d 4B- 4F	.	.
.	(8cc/ 8a-/	.
=45	=45	=45
*ped	*	*
4EE-'<	(8cc^<L 8a-^<)	.
.	16r	<
.	16b-Jk 16g	.
*Xped	*	*
4e- 4B- 4E-	4ee-'> 4g'>)	.
4e- 4Bn 4E-	4gg^< 4g^<	.
!!LO:LB:g=original
=46	=46	=46
*	*^	*
4e- 4c 4E-	(>8.ffL	4a-	<
.	16ee-Jk	.	.
4e- 4c 4E-	4cc	4a-	.
4e- 4B- 4E-	4ee-	4g	[
=47	=47	=47	=47
8e- 8c 8E-	8ff'>L)	8a-	p <
8r	16rff	8r	.
.	(>16ee-Jk	.	.
4e- 4c 4E-	4cc	4a-	.
4e- 4B- 4E-	4ee-)	4g	[
*	*v	*v	*
=48	=48	=48
4d 4B- 4E-	(<8.ccL 8.a-	>
.	16b-Jk 16g	.
4d 4B- 4E-	4.a- 4.f)	]
4d 4B- 4E-	.	.
!	!LO:TX:a:t=ritenuto	!
.	8cc/ 8a-/	.
=49	=49	=49
*	*^	*
*ped	*	*	*
!	!LO:TX:a:t=P:problem:brak kropki przy 8g	!	!
4EE-'<	8.ccL 8.g	4d-^<	.
.	16b-Jk	.	.
4B- 4E-	(2g^>	4d-	>
*Xped	*	*	*
4A 4E-	.	4c#	.
=50	=50	=50	=50
!	!LO:TX:a:t=a tempo	!	!
*ped	*	*	*
4DD'<	8aL)	(<4cn	.
.	16r	.	.
.	16f#Jk	.	.
4A 4D	4d	4c	.
*Xped	*	*	*
4A 4D	4f#	4c	.
=51	=51	=51	=51
*ped	*	*	*
4GG	(>2g^>	4B-)	.
4d 4B- 4G	.	2ryy	<
*Xped	*	*	*
4d 4B- 4G	8aL	.	.
.	8b-J	.	.
*clefG2	*	*	*
*	*v	*v	*
=52	=52	=52
4r	8ccL	.
.	16r	.
.	16ddJk	.
(4g 4e- 4c 4G	4ee-)	[
4an 4e- 4c 4G)	(>4ff#^<	.
!!LO:LB:g=original
=53	=53	=53
*	*^	*
*clefF4	*	*	*
4r	(<8gg	2.b-	.
.	(<4.dd))	.	.
(>4d'> 4G'>	.	.	.
4d'> 4G'>)	4rgg	.	.
*	*v	*v	*
=54	=54	=54
*ped	*	*
4DD	8a'<L)	.
.	16r	.
.	(<(>16f#/Jk	.
4c 4A 4D	4d	.
*Xped	*	*
4d 4c 4A 4D	4f#	.
=55	=55	=55
*ped	*	*
4GG'<	2g^<))	.
4d 4B- 4G	.	.
*Xped	*	*
4d 4B- 4G	(8.ddL	>
.	16cc#Jk	.
=56	=56	=56
4r	8b-'<L	.
.	8aJ	]
(>4en 4B- 4G 4D	4g'<	.
4c# 4A 4D)	4f#'<^<	.
=57	=57	=57
.	8qf#/	.
4r	2d^<)	.
(4A'> 4D'>	.	.
4A'> 4D'>)	[4a^<	.
=58	=58	=58
*	*^	*
*ped	*	*	*
4DD	8aL]	4.ryy	.
!	!LO:TX:a:t=sempre piu p:dur=14qe:ext=cd:problem:text with extention lines	!	!
.	16r	.	.
.	(16f#k	.	.
4A 4D	8c#	.	.
.	8d	4.d	.
*Xped	*	*	*
4cn 4A 4D	8.b- 8.f#	.	.
.	16aJ	.	.
*	*v	*v	*
!!LO:LB:g=original
=59	=59	=59
*ped	*	*
!	!LO:TX:a:t=P:problem:brak zakończenia łuku	!
4GG'<	2g^<)	.
4d 4B- 4G	.	.
*Xped	*	*
4d 4B- 4G	(>8aL	<
.	8b-J	[
*clefG2	*	*
=60	=60	=60
4r	8ccL	<
.	16r	.
.	16ddJ	.
4g 4e- 4c 4G	4ee-)	[
4an 4e- 4c 4G	(>4ff#^<	.
*clefF4	*	*
=61	=61	=61
*	*^	*
4r	8gg	(<2.b-	.
.	4.dd)	.	.
4d 4G	.	.	.
4d 4G	4rgg	.	.
*	*v	*v	*
=62	=62	=62
*ped	*	*
4DD'<	8a'<L)	.
.	16r	.
.	(<16f#Jk	.
4c 4A 4D	4d)	.
*Xped	*	*
4c 4A 4D	(4f#	.
=63	=63	=63
!	!LO:TX:a:t=ritenuto	!
*ped	*	*
4GG'<	4.g^>)	.
4B- 4D	.	.
.	(8ddL	.
.	16qdd/LL	>
.	16qff/JJ	.
*Xped	*	*
!	!LO:TX:a:t=P:problem:diminuendo rozpoczyna się pod 16qdd	!
4r	8ee-)	.
.	16rdd	]
.	(>16ddJk	.
=64	=64	=64
*ped	*	*
4DD'<	8cc#L	.
.	8ddJ	.
4c 4F# 4D	4a	.
*Xped	*	*
4c 4F# 4D	8b-L	>
.	8aJ	]
=65	=65	=65
*ped	*	*
(</4B-: 4D:/ 4GG:/	4g	pp
4GGG)	4gg)	.
4r	4r	.
!	!LO:TX:a:t=fine	!
==	==	==
*-	*-	*-
!!title: @{OTL}; @{OPS} @{ONM} publisher: @{PPR}
!!!RDF**kern: > = above
!!!RDF**kern: < = below
!!!RDF**dynam: < = "cres",fontstyle="normal"
!!!RDF**dynam: > = "dim",fontstyle="normal"
!!!ENC: Zofia Niedbalska
!!!END: 2018-12-28
!!!EED: Tomasz Sierawski
!!!EST: revision finished 2019-03-01
!!!rism-genre: Mazurka
!!!rism-key: G minor
!!!rism-opus: op. 24, no. 1
!!!rism-title: Mazurka in G minor op. 24, no. 1
!!!rism-permalink: https://opac.rism.info/search?id=1001066059&View=rism
!!!rism-773a-OPR: 1001066057
!!!rism-parent-permalink: https://opac.rism.info/search?id=1001066057&View=rism
